X: 1
T: Border
M: 4/4
L: 1/8
R: reel
K: Dmaj
effd BddB|A2FA BAFA|effd ~g3e| ~f3d edBA|
effd BddB|A2FA BAFA|efge a2ab|1afeg fdBA:|2afeg fdd2||
e3f edBd|~e3f edBA|efge fdBd|eA~A2 eA~A2|
e3f edBd|ceef edBA|efge a3b|afed eA~A2|
e3f edBd|~e3f edBA|~g3e ~f3d|eA~A2 eA~A2|
e3f edBd|ceef edBA|efge a3b|afeg fd d2||
